!!!!SEGMENT: pl-wumfc--n2100--004_dobrzynski-ignacy-feliks--monbar-czyli-flibustierowie-partytura-fortepianowa-akt-i-3-recitativo-e-romanza.krn
!!!cenid: 18xx:4187
!!!COM: Dobrzyński, Ignacy Feliks
!!!COM-rismID: pe30020642
!!!CDT: 1807/02/15-1867/10/09
!!!CNT: Polish
!!!GTL: Monbar czyli Flibustierowie - partytura fortepianowa
!!!OTL: Akt I - 3. Recitativo e romanza
!!!PDT: 1863
!!!AGN:
!!!SMS-siglum: PL-Wumfc
!!!SMS-shelfmark: N2100
!!!SMS-shelfwork: 004 G
!!!SMS-variant:
!!!SMS-altvar:
!!!NIFC-rismSourceID: 1001123412
!!!NIFC-rismChildID: 1001123412
!!!NIFC-islandoraID: pl-wumfc:1659
!!!URL-pdf-islandora: https://repozytorium.nifc.pl/islandora/object/pl-wumfc%3A1659/datastream/PDF/view
!!!URL-scan: https://polish.musicsources.pl/pl/lokalizacje/galeria/druki-muzyczne/11863-monbar-czyli-flibustierowie/38 @EN{Scan on Polish Music Sources Website} @PL{Skany w portalu Dziedzictwo Muzyki Polskiej w otwartym dostępie}
!!!ONB-nifc: Skany 0038-0041
!!!AIN: 1 feme 1 piano
!!!key: E-
**kern	**kern	**dynam	**kern	**text	**dynam
*part2	*part2	*part2	*part1	*part1	*part1
*staff3	*staff2	*	*staff1	*staff1	*
*I"PIANO.	*I"PIANO.	*	*I"DONNA MARYA.	*	*
*I'	*I'	*	*I'	*	*
*Ipiano	*Ipiano	*	*Ifeme	*	*
*ICklav	*ICklav	*	*ICvox	*	*
*IGacmp	*IGacmp	*	*IGsolo	*	*
*clefF4	*clefG2	*	*clefG2	*	*
*k[b-e-a-]	*k[b-e-a-]	*	*k[b-e-a-]	*	*
*E-:	*E-:	*	*E-:	*	*
*M4/4	*M4/4	*	*M4/4	*	*
*met(c)	*met(c)	*	*met(c)	*	*
=-	=-	=-	=-	=-	=-
*	*	*	*^	*	*
*	*	*	*	*cue	*	*
!	!	!	!LO:TX:a:i:t=vel.:rj	!	!	!
2r	2r	.	4gg\	4g/	Jak-	.
.	.	.	8.ff\	8.cc/	-że	.
*	*	*	*	*Xcue	*	*
.	.	.	16ee-/	16ee-\	mnie	.
*	*	*	*v	*v	*	*
=1	=1	=1	=1	=1	=1
1C 1CC	[2g 2e- [2c/	.	4dd\	sro-	.
.	.	.	8cc\	-dze	.
.	.	.	8cc\	do-	.
.	2g] 2en 2c/]	.	4cc\	-świad-	.
.	.	.	8g/	-czasz	.
.	.	.	8g/	o	.
=2	=2	=2	=2	=2	=2
.	.	.	4qqb-/	.	.
1F 1FF	1a- 1f 1c	.	2a-/	Boże	.
.	.	.	4a-/	w_chwi-	.
.	.	.	8.a-/	-li	.
.	.	.	16cc\	gdy	.
!!LO:LB:g=original
=3	=3	=3	=3	=3	=3
1D 1DD	1a- 1f 1B-	.	4cc\	szczę-	.
.	.	.	8b-\	-ścia	.
.	.	.	8dd\	za-	.
.	.	.	4ff\	-bły-	.
.	.	.	8.a-/	-sło	.
.	.	.	16b-\	mi	.
=4	=4	=4	=4	=4	=4
*	*^	*	*	*	*
!	!LO:TX:b:B:t=a tempo. Allegro moderato.	!	!	!	!	!
.	.	.	.	4qqa-/	.	.
[1E- [1EE-	4g 4e- 4B-/	4ryy	.	2g/	zorze	.
*	*8va	*	*	*	*	*
.	(16ggg/LL	8.bb-\L	.	.	.	.
.	16fff#X/	.	.	.	.	.
.	16ggg/	.	.	.	.	.
.	16fffn/JJ	16aa-\Jk	.	.	.	.
.	16eee-/LL	8.gg\L	.	2r	.	.
.	16ddd/	.	.	.	.	.
.	16eee-/	.	.	.	.	.
.	16ccc/JJ	16aa-\Jk	.	.	.	.
.	16bb- 16gg/LL	4ryy	.	.	.	.
.	16aan 16ff#/	.	.	.	.	.
.	16bb- 16gg/	.	.	.	.	.
.	16aa-X 16ff/JJ)	.	.	.	.	.
*	*X8va	*	*	*	*	*
=5	=5	=5	=5	=5	=5	=5
!	!LO:TX:b:i:t=poco rallen:dur=4q:ext=ud:problem:text with extension lines	!	!	!	!	!
1E-] 1EE-]	(16gg/LL	8.ee-\L	.	1r	.	.
.	16ff#X/	.	.	.	.	.
.	16gg/	.	.	.	.	.
.	16ffn/JJ	16a-\Jk	.	.	.	.
.	16ee-/LL	8.g\L	.	.	.	.
.	16dd/	.	.	.	.	.
.	16ee-/	.	.	.	.	.
.	16cc/JJ	16a-\Jk	.	.	.	.
.	16b- 16g/LL	2ryy	.	.	.	.
.	16an 16f#/	.	.	.	.	.
.	16b- 16g/	.	.	.	.	.
.	16a-X 16f/JJ	.	.	.	.	.
.	16g 16e-/LL	.	.	.	.	.
.	16f 16d/	.	.	.	.	.
.	16g 16e-/	.	.	.	.	.
.	16a- 16f/JJ)	.	.	.	.	.
*	*v	*v	*	*	*	*
!!LO:LB:g=original
=6	=6	=6	=6	=6	=6
*	*tremolo	*	*	*	*
!	!	!	!LO:TX:a:B:t=Andantino con moto.	!	!
2E-\	(>8gL 8e-/	p	4b-\	Gdy	.
.	8B-/	.	.	.	.
.	8g 8e-/	.	8.cc\	z_dro-	.
.	8B-/J	.	.	.	.
.	.	.	16b-\	-gim	.
2D\	8a-L 8f/	.	4b-\	Oj-	.
.	8B-/	.	.	.	.
.	8a- 8f/	.	8f/	-cem	.
.	8B-/J)	.	8b-\	i	.
=7	=7	=7	=7	=7	=7
2BB-/	(>8a-L 8f 8d/	.	4cc\	mi-	.
.	8B-/	.	.	.	.
.	8a- 8f 8d/	.	8.b-\	-łym	.
.	8B-/J	.	.	.	.
.	.	.	16f/	Żu-	.
2E-\	8gL 8e-/	.	4a-/	-a-	.
.	8B-/	.	.	.	.
.	8g 8e-/	.	8g/	-nem	.
.	8B-/J)	.	16r	.	.
.	.	.	16b-\	pły-	.
=8	=8	=8	=8	=8	=8
2E-\	(>8gL 8e-/	<	4cc\	-nę-	.
.	8B-/	.	.	.	.
.	8g 8e-/	.	4b-\	-łam	.
.	8B-/J	.	.	.	.
2D\	8a-L 8f/	.	4b-^\	śmia-	.
.	8B-/	.	.	.	.
.	8a- 8f/	[ f	8f/	-ło	.
.	8B-/J)	.	8b-\	ku	.
=9	=9	=9	=9	=9	=9
2BB-/	(>8a-L 8d/	>	4ff\	brze-	.
.	8B-/	.	.	.	.
.	8a- 8d/	.	8.a-/	-gom	.
.	8B-/J	.	.	.	.
.	.	.	16b-\	nie-	.
2E-\	8gL 8e-/	.	4a-/	-zna-	.
.	8B-/	.	.	.	.
.	8g 8e-/	]	8g/	-nym	.
.	8B-/J)	.	8r	.	.
!!LO:LB:g=original
=10	=10	=10	=10	=10	=10
2D\	8fL 8Bn</	.	4g/	Gdzieś-	.
.	8G</	.	.	.	.
.	8f 8B</	.	8.an/	-my	.
.	8G</J	.	.	.	.
.	.	.	16bn\	serc	.
2C\	8e-L 8c/	.	4cc\	na-	.
.	8G</	.	.	.	.
.	8e- 8c/	.	4g/	-szych	.
.	8G</J	.	.	.	.
=11	=11	=11	=11	=11	=11
2BBn\	8fL 8d/	.	8dd\	mie-	.
.	8G</	.	8dd\	-li	.
.	8f 8d/	.	8bn\	zwią-	.
.	8G</J	.	8g/	-zek	.
2C\	8e-L 8c/	.	4ee-\	tkli-	.
.	8G</	.	.	.	.
.	8e- 8c/	.	4cc\	-wy	.
.	8G</J	.	.	.	.
=12	=12	=12	=12	=12	=12
2AAn\	8e-L 8c/	>	4ee-\	spo-	>
.	8F#</	.	.	.	.
.	8e- 8c/	]	8.dd\	-ić	]
.	8F#X</J	.	.	.	.
.	.	.	16cc\	na	.
2BB-\	8e-L 8G</	.	4cc\	wie-	.
.	8B-</	.	.	.	.
.	8e- 8G</	.	8b-\	-ki	.
.	8B-</J	.	8g/	ślu-	.
*	*Xtremolo	*	*	*	*
=13	=13	=13	=13	=13	=13
8BB-\	8e- 8B-< 8G</	.	8.g/L	-bne-	.
8r	8r	.	.	.	.
.	.	.	16a-/Jk	.	.
8BB-\	8d 8B-< 8A-</	.	8.f/	-mi	.
8r	8r	.	.	.	.
.	.	.	16g/	o-	.
(>4BB- (<4BBB-\	(>4d (>4B-< (<4A-</	.	4f/	-gni-	.
8E- 8EE-\))	8e- 8B-< 8G</)))	.	8e-/	-wy	.
8r;	8r;	.	8r;	.	.
!!LO:PB:g=original
=14	=14	=14	=14	=14	=14
*tremolo	*tremolo	*	*	*	*
!	!	!	!LO:TX:a:B:t=Recit.	!	!
32DD\LLL	32fLLL 32Bn/	fp	2r	.	.
32D\	32G</	.	.	.	.
32DD\	32f 32B/	.	.	.	.
32D\	32G</	.	.	.	.
32DD\	32f 32B/	.	.	.	.
32D\	32G</	.	.	.	.
32DD\	32f 32B/	.	.	.	.
32D\	32G</	.	.	.	.
32DD\	32f 32B/	.	.	.	.
32D\	32G</	.	.	.	.
32DD\	32f 32B/	.	.	.	.
32D\	32G</	.	.	.	.
32DD\	32f 32B/	.	.	.	.
32D\	32G</	.	.	.	.
32DD\	32f 32B/	.	.	.	.
32D\JJJ	32G</JJJ	.	.	.	.
32DD\LLL	32fLLL 32B/	.	8.g/	Ja-	.
32D\	32G</	.	.	.	.
32DD\	32f 32B/	.	.	.	.
32D\	32G</	.	.	.	.
32DD\	32f 32B/	.	.	.	.
32D\	32G</	.	.	.	.
32DD\	32f 32B/	.	16g/	-każ	.
32D\	32G</	.	.	.	.
32DD\	32f 32B/	.	16g/	w_lo-	.
32D\	32G</	.	.	.	.
32DD\	32f 32B/	.	16g/	-sie	.
32D\	32G</	.	.	.	.
32DD\	32f 32B/	.	16g/	mym	.
32D\	32G</	.	.	.	.
32DD\	32f 32B/	.	16an/	od-	.
32D\JJJ	32G</JJJ	.	.	.	.
=15	=15	=15	=15	=15	=15
.	.	.	8qqcc/	.	.
32DD\LLL	32fLLL 32Bn/	.	4bn\	-miana	.
32D\	32G</	.	.	.	.
32DD\	32f 32B/	.	.	.	.
32D\	32G</	.	.	.	.
32DD\	32f 32B/	.	.	.	.
32D\	32G</	.	.	.	.
32DD\	32f 32B/	.	.	.	.
32D\	32G</	.	.	.	.
32DD\	32f 32B/	.	4r	.	.
32D\	32G</	.	.	.	.
32DD\	32f 32B/	.	.	.	.
32D\	32G</	.	.	.	.
32DD\	32f 32B/	.	.	.	.
32D\	32G</	.	.	.	.
32DD\	32f 32B/	.	.	.	.
32D\JJJ	32G</JJJ	.	.	.	.
32DD\LLL	32fLLL 32B/	.	8.b\	z_o-	.
32D\	32G</	.	.	.	.
32DD\	32f 32B/	.	.	.	.
32D\	32G</	.	.	.	.
32DD\	32f 32B/	.	.	.	.
32D\	32G</	.	.	.	.
32DD\	32f 32B/	.	16b\	-bjęć	.
32D\	32G</	.	.	.	.
32DD\	32f 32B/	.	16b\	Oj-	.
32D\	32G</	.	.	.	.
32DD\	32f 32B/	.	16b\	-ca	.
32D\	32G</	.	.	.	.
32DD\	32f 32B/	.	16b\	jam	.
32D\	32G</	.	.	.	.
32DD\	32f 32B/	.	16cc\	por-	.
32D\JJJ	32G</JJJ	.	.	.	.
=16	=16	=16	=16	=16	=16
.	.	.	8qqee-/	.	.
32BBnLLL 32BBBn\	32fLLL 32d 32A-</	.	4dd\	-wana	.
32BB 32BBB\	32f 32d 32A-</	.	.	.	.
32BB 32BBB\	32f 32d 32A-</	<	.	.	.
32BB 32BBB\	32f 32d 32A-</	.	.	.	.
32BB 32BBB\	32f 32d 32A-</	.	.	.	.
32BB 32BBB\	32f 32d 32A-</	.	.	.	.
32BB 32BBB\	32f 32d 32A-</	.	.	.	.
32BB 32BBB\	32f 32d 32A-</	.	.	.	.
32BB 32BBB\	32f 32d 32A-</	.	(8aa-\	w_te	.
32BB 32BBB\	32f 32d 32A-</	.	.	.	.
32BB 32BBB\	32f 32d 32A-</	.	.	.	.
32BB 32BBB\	32f 32d 32A-</	.	.	.	.
32BB 32BBB\	32f 32d 32A-</	.	16.ff\)	.	.
32BB 32BBB\	32f 32d 32A-</	.	.	.	.
32BB 32BBB\	32f 32d 32A-</	.	.	.	.
32BBJJJ 32BBB\	32fJJJ 32d 32A-</	.	32dd\	zbó-	.
.	.	.	8qqcc/	.	.
32DLLL 32DD/	32fLLL 32Bn 32F/	[ f	4bn\	-jeckie	.
32D 32DD/	32f 32B 32F/	.	.	.	.
32D 32DD/	32f 32B 32F/	.	.	.	.
32D 32DD/	32f 32B 32F/	.	.	.	.
32D 32DD/	32f 32B 32F/	.	.	.	.
32D 32DD/	32f 32B 32F/	.	.	.	.
32D 32DD/	32f 32B 32F/	.	.	.	.
32DJJJ 32DD/	32fJJJ 32B 32F/	.	.	.	.
*Xtremolo	*Xtremolo	*	*	*	*
8D 8DD\	8f 8B 8A-</	.	8.a-;/	pchnię-	.
8r;	8r;	.	.	.	.
.	.	.	16g/	-ta	.
!!LO:LB:g=original
=17	=17	=17	=17	=17	=17
.	.	.	8qqf/	.	.
*tremolo	*	*	*	*	*
!	!	!LO:DY:rj	!	!	!
8CC/L	4e- 4c 4G</	f	4e-/	progi	.
8C/	.	.	.	.	.
!	!LO:TX:b:B:t=Allegro vivace	!	!	!	!
8CC/	16f/LL	.	4r	.	.
.	16a-/	.	.	.	.
8C/J	16f/	.	.	.	.
.	16a-/JJ	.	.	.	.
8CC/L	16e-/LL	.	2r	.	.
.	16g/	.	.	.	.
8C/	16e-/	.	.	.	.
.	16g/JJ	.	.	.	.
8CC/	16a-\LL	.	.	.	.
.	16ff\	.	.	.	.
8C/J	16a-\	.	.	.	.
.	16ff\JJ	.	.	.	.
=18	=18	=18	=18	=18	=18
8CC/L	16g\LL	.	1r	.	.
.	16ee-\	.	.	.	.
8C/	16g\	.	.	.	.
.	16ee-\JJ	.	.	.	.
*	*tremolo	*	*	*	*
!	!LO:TX:b:i:t=simile	!	!	!	!
8CC/	16aa-LL 16ff\	.	.	.	.
.	16aa- 16ff\	.	.	.	.
8C/J	16aa- 16ff\	.	.	.	.
.	16aa-JJ 16ff\	.	.	.	.
8CC/L	16ggLL 16ee-\	.	.	.	.
.	16gg 16ee-\	.	.	.	.
8C/	16gg 16ee-\	.	.	.	.
.	16ggJJ 16ee-\	.	.	.	.
8CC/	16fffLL 16aa-\	.	.	.	.
.	16fff 16aa-\	.	.	.	.
8C/J	16fff 16aa-\	.	.	.	.
.	16fffJJ 16aa-\	.	.	.	.
*Xtremolo	*Xtremolo	*	*	*	*
=19	=19	=19	=19	=19	=19
4E- 4CC/	4eee- 4gg\	.	2r	.	.
!	!	!LO:DY:rj	!	!	!
2.C 2.CC\	2.e- 2.c 2.G</	fz	.	.	.
!	!LO:TX:b:B:t=Recit.	!	!LO:TX:a:B:t=Recit.	!	!
.	.	.	4.cc\	A	.
.	.	.	8cc\	na	.
=20	=20	=20	=20	=20	=20
.	.	.	4qqee-/	.	.
1G 1BB-X 1BBB-X	1e- 1d-X	.	2dd-X\	domiar	.
.	.	.	4.dd-\	Mon-	.
.	.	.	8cc\	-bar	.
!!LO:LB:g=original
=21	=21	=21	=21	=21	=21
!	!	!LO:DY:rj	!	!	!
1B- 1GG	1e- 1d-X^	f	4cc\	sro-	.
.	.	.	8b-\	-gi	.
.	.	.	16r	.	.
.	.	.	16b-\	któ-	.
.	.	.	8b-\	-re-	.
.	.	.	8b-\	-go	.
.	.	.	8b-\	z_brze-	.
.	.	.	16a-/	-ga	.
.	.	.	16b-\	do	.
=22	=22	=22	=22	=22	=22
.	.	.	8qqa-/	.	.
2EE-/	2g 2e- 2d-X/	.	4.g/	brzega	.
.	.	.	8e-/	Jak	.
*tremolo	*tremolo	*	*	*	*
!	!LO:TX:b:i:t=trem.:rj	!	!	!	!
32E-LLL 32EE-/	32gLLL 32e- 32d-/	.	(8e-/	grom	.
32E- 32EE-/	32g 32e- 32d-/	.	.	.	.
32E- 32EE-/	32g 32e- 32d-/	<	.	.	.
32E- 32EE-/	32g 32e- 32d-/	.	.	.	.
32E- 32EE-/	32g 32e- 32d-/	.	16g/)	.	.
32E- 32EE-/	32g 32e- 32d-/	.	.	.	.
32E- 32EE-/	32g 32e- 32d-/	.	16b-\	się	.
32E- 32EE-/	32g 32e- 32d-/	.	.	.	.
32E- 32EE-/	32g 32e- 32d-/	.	8ee-\	i-	.
32E- 32EE-/	32g 32e- 32d-/	.	.	.	.
32E- 32EE-/	32g 32e- 32d-/	.	.	.	.
32E- 32EE-/	32g 32e- 32d-/	.	.	.	.
32E- 32EE-/	32g 32e- 32d-/	.	16ff\	-mie	.
32E- 32EE-/	32g 32e- 32d-/	.	.	.	.
32E- 32EE-/	32g 32e- 32d-/	.	16gg\	roz-	.
32E-JJJ 32EE-/	32gJJJ 32e- 32d-/	[[	.	.	.
*Xtremolo	*Xtremolo	*	*	*	*
=23	=23	=23	=23	=23	=23
!	!LO:TX:a:B:t=Allegro vivo	!	!	!	!
4AA- 4AAA-/	4a- 4e- 4c/	ff	2aa-\	-le-	.
*	*Xtuplet	*	*	*	*
4AA- 4AAA-/	12cL 12A-/	.	.	.	.
.	12E-</	.	.	.	.
.	12cJ 12A-/	.	.	.	.
4AA- 4AAA-/	12cL 12A-/	.	4a-/	-ga	.
.	12E-</	.	.	.	.
.	12cJ 12A-/	.	.	.	.
4GG 4GGG/	12d-XL 12B-^>/	.	4r	.	.
.	12F-X</	.	.	.	.
.	12d-J 12B-/	.	.	.	.
!!LO:LB:g=original
=24	=24	=24	=24	=24	=24
4AA- 4AAA-/	12cL 12A-/	.	1r	.	.
.	12E-</	.	.	.	.
.	12cJ 12A-/	.	.	.	.
4AA- 4AAA-/	12d-XL 12B-^>/	.	.	.	.
.	12F-X</	.	.	.	.
.	12d-J 12B-/	.	.	.	.
4AA- 4AAA-/	12cL 12A-/	.	.	.	.
.	12E-</	.	.	.	.
.	12cJ 12A-/	.	.	.	.
4GG 4GGG/	12d-L 12B-^>/	.	.	.	.
.	12F-</	.	.	.	.
.	12d-J 12B-/	.	.	.	.
=25	=25	=25	=25	=25	=25
*Xtuplet	*	*	*	*	*
12AAA-/L	12cL 12A-/	.	1r	.	.
12EE-/	12E-</	.	.	.	.
12AA-/J	12cJ 12A-/	.	.	.	.
12AAA-/L	12cL 12A-/	.	.	.	.
12EE-/	12E-</	.	.	.	.
12AA-/J	12cJ 12A-/	.	.	.	.
12AAA-/L	12e-L 12c/	.	.	.	.
12EE-/	12A-/	.	.	.	.
12AA-/J	12e-J 12c/	.	.	.	.
12AAA-/L	12e-L 12c/	.	.	.	.
12EE-/	12A-/	.	.	.	.
12AA-/J	12e-J 12c/	.	.	.	.
=26	=26	=26	=26	=26	=26
4AA- 4AAA-/	4a- 4e- 4c/	.	4.ee-\	Mnie	.
4r	4r	.	.	.	.
!	!LO:TX:b:B:t=Recit.	!	!	!	!
.	.	.	8ee-\	zu-	.
2r	2r	.	8ee-\	-chwa-	.
.	.	.	8ee-\	-łą	.
.	.	.	8cc\	hań-	.
.	.	.	8a-/	-bi	.
!!LO:LB:g=original
=27	=27	=27	=27	=27	=27
!	!LO:TX:b:B:t=Vivo	!LO:DY:rj	!	!	!
4D-X 4AA- 4DD-X/	8.dd-XL 8.a- 8.f/	f	2ff\	mo-	.
.	16dd-Jk 16a- 16f/	.	.	.	.
4D- 4AA- 4DD-/	8.dd-L 8.a- 8.f\	.	.	.	.
.	16ffJk 16dd- 16a-\	.	.	.	.
4D- 4AA- 4DD-/	8.ffL 8.dd- 8.a-\	.	4dd-X\	-wą	.
.	16aa-Jk 16ff 16dd-\	.	.	.	.
4D- 4AA- 4DD-/	8.aa-L 8.ff 8.dd-\	.	4r	.	.
.	16ddd-XJk 16aa- 16ff\	.	.	.	.
=28	=28	=28	=28	=28	=28
*^	*^	*	*	*	*
!	!	!LO:TX:b:i:t=poco rallen.:dur=4q	!	!	!	!	!
4D-X 4AA-X 4DD-X/	4ryy	4ddd-X 4aa- 4ff\	4ryy	.	1r	.	.
!	!	!	!	!LO:HP:b	!	!	!
!	!	!	!LO:SIC:v:s=2d-	!LO:DY:b:rj	!	!	!
[<2.A-/	[2.D- [2.DD-\	[2.f/	2d\	fz >	.	.	.
.	.	.	4c\	]	.	.	.
=29	=29	=29	=29	=29	=29	=29	=29
2A-/]	1D-] 1DD-]	1f]	1Bn	.	4.ff\	Ser-	.
.	.	.	.	.	8f/	-ca	.
!LO:TX:a:B:t=Recit.	!	!	!	!	!	!	!
2F/	.	.	.	.	8a-/	swe-	.
.	.	.	.	.	8a-/	-go	.
.	.	.	.	.	8g/	zwie	.
.	.	.	.	.	8f/	kró-	.
*v	*v	*	*	*	*	*	*
*	*v	*v	*	*	*	*
=30	=30	=30	=30	=30	=30
2.C 2.CC;<\	2.en 2.c 2.G<;/	.	2cc;\	-lo-	.
.	.	.	4c;/	-wą	.
4r;	4r;	.	4r;	.	.
!!LO:PB:g=original
=31	=31	=31	=31	=31	=31
!	!	!	!LO:TX:a:B:t=BLANKA	!	!
1r	1r	.	2r	.	.
.	.	.	8r	.	.
.	.	.	8cc\	Ah!	.
.	.	.	8dd-X\	po-	.
.	.	.	8cc\	-cóż	.
=32	=32	=32	=32	=32	=32
!	!	!	!LO:TX:a:B:t=Moderato	!	!
1B- 1En 1EEn	1g 1c	.	4cc\	pa-	.
.	.	.	8b-\	-ni	.
.	.	.	8b-\	ta	.
.	.	.	4b-\	roz-	.
.	.	.	8a-/	-pacz	.
.	.	.	8g/	i	.
=33	=33	=33	=33	=33	=33
2F 2FF\	(>2f 2c 2A-</	.	4b-\	trwo-	.
.	.	.	8a-/	-ga	.
.	.	.	8r	.	.
2D-X 2DD-X\	2f 2Bn< 2F</	.	4a-/	nie	.
.	.	.	8g/	nie	.
.	.	.	8f/	stra-	.
=34	=34	=34	=34	=34	=34
1C 1CC	2en 2c< 2G</	.	4cc\	-co-	.
.	.	.	8g/	-ne	.
.	.	.	8r	.	.
.	2f 2c< 2A-</)	.	8a-/	przy-	.
.	.	.	8a-/	-szłość	.
.	.	.	8g/	w_mo-	.
.	.	.	8f/	-cy	.
!!LO:LB:g=original
=35	=35	=35	=35	=35	=35
*^	*^	*	*	*	*
4.C 4.CC\	2ryy	4.en 4.c< 4.G<;/	2ryy	.	4cc\	Bo-	.
.	.	.	.	.	8qqdd/	.	.
.	.	.	.	.	8cc;\	-ga	.
8r	.	8r	.	.	16r	.	.
!	!	!	!	!	!LO:TX:a:B:t=Poco animato	!	!
.	.	.	.	.	16cc\	Lecz	.
!LO:TX:a:t=Fag.:rj	!	!LO:TX:a:t=Clar.:rj	!	!	!	!	!
(>2E-/	2AA-\	(4cc/	2c\	.	(4cc\	dziś	.
.	.	.	.	<	.	.	.
.	.	8b-/L	.	.	8b-\)	.	.
.	.	8a-/J	.	[[	8a-/	z_twéj	.
=36	=36	=36	=36	=36	=36	=36	=36
2En/)	2BB-\	4a-^/	2d-X\	.	4a-/	stro-	.
.	.	4g/)	.	.	8g/	-ny	.
.	.	.	.	.	8b-\	ko-	.
!	!	!LO:SIC:v:s=(4dd-	!	!	!LO:SIC:v:s=4dd-	!	!
(2G/	2BB-\	(4dd/	2en\	.	4dd\	-nie-	.
.	.	.	.	<	.	.	.
.	.	8cc/L	.	.	8cc\	-czna	.
.	.	8b-/J	.	[[	8b-\	o-	.
=37	=37	=37	=37	=37	=37	=37	=37
2G-X/)	2C\	4b-/	2e-X\	.	4b-\	-fia-	.
.	.	4an/)	.	.	8an/	-ra	.
.	.	.	.	.	8cc\	o-	.
(2An/	2C\	(4ee-/	2g-X 2e-\	.	(4ee-\	-ży-	.
.	.	.	.	<	.	.	.
.	.	8dd-X/L	.	.	8dd-X\)	.	.
.	.	8cc/J	.	[[	8cc\	-wiaj	.
!!LO:LB:g=original
=38	=38	=38	=38	=38	=38	=38	=38
!LO:TX:t=P:problem=brak zakończenia łuku	!	!	!	!	!	!	!
2B-/)	2D-X\	4cc/	2f 2d-X\	.	4cc\	pa-	.
.	.	.	.	>	.	.	.
.	.	4b-/)	.	.	8b-\	-ni	.
.	.	.	.	.	8b-\	na-	.
!	!	!	!	!	!LO:SIC:v:s=4dd-	!	!
(2B-/	(2E-\	(2g/	[2e- 2d-\	] p	4dd\	-dzię-	.
.	.	.	.	.	8cc\	-je	.
.	.	.	.	.	8b-\	Mon-	.
=39	=39	=39	=39	=39	=39	=39	=39
.	.	.	.	.	4qqb-/	.	.
4A-/)	4AA-\)	4a-/)	4e-] 4c\	.	2a-/	-bara	.
4r	4ryy	4r	4ryy	.	.	.	.
*tremolo	*	*tremolo	*	*	*	*	*
!	!	!LO:TX:a:B:t=Risoluto	!	!LO:DY:rj	!LO:TX:a:B:t=D&colon; MARYA (z oburzeniem)	!	!
8G\L	2ryy	8b-L 8en [[8c/	2ryy	fp	4cc\	Ni-	.
8G\	.	8b- 8e 8c/	.	.	.	.	.
8G\	.	8b- 8e 8c/	.	.	8.ddn\	-gdy	.
8G\J	.	8b-J 8e 8c/	.	.	.	.	.
.	.	.	.	.	16een\	po-	.
*v	*v	*	*	*	*	*	*
=40	=40	=40	=40	=40	=40	=40
*	*	*	*	*^	*	*
8F\L	8a-L 8f/	N[8c\L]]	.	4ff\	2ryy	-zo-	.
8F\	8a- 8f/	8c\	.	.	.	.	.
8F\	8a- 8f/	8c\	.	8cc\	.	-rem	.
8F\J	8a-J 8f/	8c\	.	8cc\	.	u-	.
*	*	*	*	*	*cue	*	*
(8En\L	8b-L 8g/	8c\	.	4gg\	4cc/	-czu-	.
8E\	8b- 8g/	8c\	.	.	.	.	.
8E\	8b- 8g/	8c\	.	8.cc\	8.g/	-cia	.
8E\J	8b-J 8g/	8c\J	.	.	.	.	.
.	.	.	.	16cc\	16g/	kła-	.
=41	=41	=41	=41	=41	=41	=41	=41
8F\L	8a-L 8f/	8c\LN]	.	4aa-\	4a-/	-ma-	.
8F\J	8a- 8f/	8c\J	.	.	.	.	.
8E-X\L)	8a- 8f/	8c-X^\L	.	8ff\	8f/	-nym	.
*	*	*	*	*	*Xcue	*	*
8E-\J)	8a-J 8f/	8c-\J	.	16r	8ryy	.	.
.	.	.	.	16cc-X\	.	nie	.
!	!	!	!LO:DY:rj	!	!	!	!
(8D\L	(>8a-L 8f 8B-/	2ryy	fp	(4b-\	2ryy	zra-	.
8D\J	8a- 8f 8B-/	.	.	.	.	.	.
8BB-/L	8a- 8f 8B-/	.	.	8.ccn\)	.	.	.
8BB-/J	8a-J 8f 8B-/	.	.	.	.	.	.
.	.	.	.	16dd\	.	-nię	.
*	*	*	*	*v	*v	*	*
*	*v	*v	*	*	*	*
!!LO:LB:g=original
=42	=42	=42	=42	=42	=42
8E-\L	8gL 8e- 8B-/	.	4ee-\	ser-	.
8E-\	8g 8e- 8B-/	.	.	.	.
8E-\	8g 8e- 8B-/	.	4ee-\	-ca	.
8E-\J	8gJ 8e- 8B-/	.	.	.	.
8D\L	8a-L 8f 8B-/)	.	8ff\	któ-	.
8D\	8a- 8f 8B-/	.	8ff\	-re	.
8D\	8a- 8f 8B-/	.	8dd\	zmym	.
8D\J	8a-J 8f 8B-/	.	8b-\	Żu-	.
*Xtremolo	*Xtremolo	*	*	*	*
=43	=43	=43	=43	=43	=43
4E-\)	4g-X 4e- 4B-/	.	4.gg-X;\	-a-	>
!	!	!	!LO:TX:a:B:t=Poco più lento	!	!
4r;	4r;	.	.	.	.
.	.	.	8ff-X\	-nem	]
*	*tremolo	*	*	*	*
!	!	!LO:DY:rj	!	!	!
[<2C-X [2CC-X\	(8e-L 8c-X/	p	4ee-\	świę-	.
.	8G-</	.	.	.	.
.	.	.	8qqgg-/	.	.
.	8e- 8c-/	.	8ff-\	-te-	.
.	8G-X</J)	.	8ee-\	-mi	.
=44	=44	=44	=44	=44	=44
1C-] 1CC-]	(8f-XL 8B-</	.	4ee-\	wę-	.
.	8G-</	.	.	.	.
.	8f-X 8B-</	.	8dd-X\	-zły	.
.	8G-X</J)	.	8dd-\	na	.
.	(8f-L 8B-</	.	4ff-X\	wie-	.
.	8G-</	.	.	.	.
.	8f- 8B-</	.	8ee-\	-ki	.
.	8G-</J)	.	8dd-\	zwią-	.
*	*Xtremolo	*	*	*	*
=45	=45	=45	=45	=45	=45
*	*^	*	*	*	*
!LO:TX:a:t=Fag.:rj	!LO:TX:a:t=Cor.:rj	!	!	!	!	!
2C-X 2CC-X\	2e- 2G-X</	[1c-	.	4dd-X\	-za-	.
.	.	.	.	8cc-X\	-ne	.
.	.	.	.	8r	.	.
4F-X\	4f-X 4A-</	.	.	2r	.	.
4C-\	4e- 4G-</	.	.	.	.	.
!!LO:LB:g=original
=46	=46	=46	=46	=46	=46	=46
4F-X\	4f-X 4A-</	1c-]	.	1r	.	.
4C-X\	4e- 4G-X</	.	.	.	.	.
4F-\	4f- 4A-</	.	.	.	.	.
4C-\	4e- 4G-</	.	.	.	.	.
*	*v	*v	*	*	*	*
=47	=47	=47	=47	=47	=47
!	!	!	!LO:TX:a:B:t=Recit. (desperato)	!	!
[1A-X [1F-X	[1f-X [1c-X	f	4r	.	.
.	.	.	8.r	.	.
.	.	.	16cc-X\	O!	.
.	.	.	4.ff-X\	ra-	.
.	.	.	8a-/	-czéj	.
=48	=48	=48	=48	=48	=48
*	*^	*	*	*	*
.	.	.	.	4qqdd-X/	.	.
1A-] 1F-]	4f-/]	2c-\]	.	2cc-X\	umrzeć	.
.	4r	.	<	.	.	.
.	2r	(>4d-X\	.	4r	.	.
.	.	4dn\	.	8r	.	.
.	.	.	[[	8cc-\	Lecz	.
*	*v	*v	*	*	*	*
=49	=49	=49	=49	=49	=49
!	!LO:TX:b:t=rallen	!	!LO:TX:a:i:t=rallen:dur=4q:ext=ud:problem:text with extension lines	!	!
1A- 1F-X 1FF-X	1dn)	>]	2cc-X\	wier-	.
.	.	.	4b-\	-ną	.
.	.	.	4a-/	zo-	.
=50	=50	=50	=50	=50	=50
!	!	!LO:DY:rj	!	!	!
2.E- 2.EE-\	2.e- 2.B-< 2.G</	p	2ee-;\	-sta-	.
.	.	.	4e-;/	-nę	.
4r;	4r;	.	4r;	.	.
==	==	==	==	==	==
*-	*-	*-	*-	*-	*-
!!!system-decoration: <vox>{(klav)}
!!!RDF**kern: > = above
!!!RDF**kern: < = below
!!!RDF**kern: N = linked
!!!ENC: Berenika Jozajtis
!!!END: 2022-09-09
!!!ENC: Andrzej Kubiczek
!!!END: 2022-09-19
!!!YEC: Copyright 2022 Narodowy Instytut Fryderyka Chopina (https://polishscores.org)
!!!YEM: License CC-BY-4.0 (https://creativecommons.org/licenses/by/4.0)
